public/icons/artwork_icon.svg

<svg width="330" height="330" viewBox="0 0 330 330" fill="none" xmlns="http://www.w3.org/2000/svg">
<path d="M162.171 18.311C163.654 18.0725 165.568 17.8139 167.032 18.19C170.153 18.989 200.789 47.1739 203.091 51.1167L255.49 51.0827C264.686 51.0689 274.564 50.2717 283.677 51.38C286.826 51.7639 289.845 52.4101 292.45 54.2945C293.592 56.4735 293.748 59.0005 293.776 61.4216C294.374 112.997 293.583 164.709 293.601 216.303L293.638 275.197C293.647 285.356 294.19 295.873 293.472 305.997C293.343 307.852 292.837 308.785 291.521 310.087C290.25 311.343 285.841 311.413 284.119 311.504C270.946 312.2 257.496 311.627 244.277 311.625L166.958 311.58L81.2259 311.617C69.6267 311.618 52.0438 313.044 40.9693 310.799C39.2295 309.672 38.2629 308.377 37.7106 306.349C36.3297 301.301 37.3884 253.345 37.3792 245.113L37.3516 126.087C37.3516 105.752 36.8912 85.3048 37.4067 64.9805C37.4896 61.5072 37.6001 55.9009 39.2571 52.864C46.7045 49.3437 113.078 51.0845 126.417 51.1011C132.483 48.2308 155.019 24.5515 162.171 18.311Z" fill="#080807"/>
<path d="M74.7641 90.8235C93.0189 89.4095 116.346 90.6081 135.052 90.61L255.094 90.6348C255.509 91.3243 255.785 91.8122 255.978 92.6012C257.313 98.2912 256.236 120.427 256.236 127.389L256.245 184.496C256.245 194.273 256.595 204.202 256.153 213.966C256.079 215.66 255.757 216.93 254.929 218.424C254.901 218.291 254.883 218.155 254.837 218.027C253.695 214.716 218.014 181.793 214.525 180.445C211.625 179.321 208.035 181.4 205.503 182.672C203.745 186.482 191.437 196.873 187.718 199.221C187.699 199.043 187.69 198.86 187.644 198.686C186.834 195.643 151.042 154.22 146.789 149.754C145.114 147.986 143.429 146.42 141.257 145.272C138.596 144.983 136.82 146.142 134.831 147.775C128.811 152.736 123.646 159.94 118.491 165.876L86.3908 202.991C83.0584 206.852 78.9435 213.154 74.672 215.678C74.5523 215.747 74.4327 215.808 74.313 215.874C75.6662 212.045 76.1449 99.4769 74.7641 90.8235Z" fill="#FEFEFE"/>
<path d="M195.018 114.724C210.226 113.71 223.436 125.081 224.697 140.273C225.958 155.465 214.81 168.865 199.648 170.378C189.614 171.38 179.819 166.891 174.02 158.636C168.229 150.381 167.336 139.642 171.691 130.543C176.036 121.443 184.956 115.396 195.018 114.724Z" fill="#080807"/>
<path d="M196.353 124.975C206.001 124.687 214.083 132.212 214.488 141.856C214.893 151.501 207.464 159.677 197.826 160.197C191.492 160.539 185.463 157.446 182.038 152.1C178.614 146.754 178.328 139.979 181.292 134.366C184.257 128.751 190.01 125.165 196.353 124.975Z" fill="#FFD026"/>
<path d="M139.157 157.812C143.539 159.693 150.351 169.758 153.628 173.593L190.488 216.79C195.864 223.125 200.863 230.245 206.69 236.122C208.016 237.455 209.185 238.497 211.081 238.905C213.217 238.621 213.769 238.556 215.472 237.286C215.969 236.051 216.135 235.281 215.859 233.949C214.69 228.323 199.933 210.444 194.999 207.117C194.861 207.022 194.714 206.934 194.566 206.843C198.617 204.994 209.443 195.58 211.1 191.58C215.288 193.406 254.035 229.399 255.333 232.472C255.536 232.917 255.729 233.283 255.858 233.748C257.036 237.9 256.944 266.587 255.001 269.697C255.581 270.778 255.72 271.357 255.701 272.584C249.423 273.432 242.574 272.896 236.213 272.891L199.565 272.877L73.9072 272.899C74.0637 272.636 74.2386 272.381 74.3767 272.11C76.0798 268.944 75.7116 236.168 74.3215 232.098C78.4457 229.637 131.526 166.704 139.157 157.812Z" fill="#FEFEFE"/>
<path d="M53.3511 61.8156C60.7432 60.6087 69.1112 61.3304 76.6231 61.3415L119.328 61.3774L275.696 61.4216C275.65 61.6802 275.65 61.9509 275.549 62.1967C274.536 64.8728 268.681 69.8576 266.288 71.487C266.251 71.6509 266.242 71.8267 266.168 71.9805C264.833 74.8683 260.691 78.9004 257.911 80.4608C237.244 81.5415 216.071 80.5639 195.349 80.5657L71.7256 80.5602C70.9523 77.5361 56.4442 63.9743 53.3511 61.8156Z" fill="#FEFEFE"/>
<path d="M70.8698 283.499C77.0928 282.456 84.172 283.055 90.4871 283.066L126.647 283.131L257.847 283.096C258.077 283.212 258.307 283.323 258.528 283.444C261.768 285.192 274.859 298.462 275.632 301.355C270.053 301.612 264.383 301.458 258.786 301.488L53.0659 301.521C53.2316 301.438 53.3974 301.36 53.5631 301.272C57.4479 299.172 69.6639 287.178 70.8698 283.499Z" fill="#FEFEFE"/>
<path d="M47.0176 71.4788C47.5884 71.5304 48.2603 71.5377 48.7851 71.755C51.4823 72.8597 63.192 85.1253 64.0297 87.54C64.131 87.7849 64.2414 88.026 64.3335 88.2737C65.788 92.3058 65.5303 254.644 64.8859 272.195C64.8399 273.517 64.5913 274.553 64.0482 275.767C63.2933 278.697 58.5524 282.618 56.03 284.213C54.732 287.799 49.5676 291.947 46.3364 293.879C46.4193 293.729 46.5114 293.582 46.5942 293.428C47.4135 291.769 47.6068 290.329 47.6712 288.503C48.1959 271.932 47.7357 255.199 47.7357 238.614V141.405C47.7357 130.996 48.9969 78.0084 47.0176 71.4788Z" fill="#FEFEFE"/>
<path d="M281.846 70.7957C282.886 70.9853 282.886 70.9844 283.576 71.7889C282.803 90.3854 283.457 109.232 283.457 127.864V234.966C283.484 253.321 284.663 272.361 283.401 290.623C283.319 291.894 282.858 292.946 282.223 294.041C281.284 290.489 278.486 288.236 275.549 286.263C274.435 282.853 268.682 277.829 265.662 275.978C266.168 274.728 266.38 273.722 266.435 272.366C267.163 254.596 267.457 92.4824 265.708 87.5592C270.173 85.1823 278.854 75.0459 281.846 70.7957Z" fill="#FEFEFE"/>
<path d="M164.731 30.0521C164.998 30.1238 165.459 30.2315 165.735 30.3613C168.763 31.8104 185.932 47.8597 187.377 51.1038L164.888 51.1056L141.818 51.1204C148.934 46.6261 158.306 36.1147 164.731 30.0521Z" fill="#FEFEFE"/>
</svg>

<svg xmlns="http://www.w3.org/2000/svg" width="330" height="330" fill="none" viewBox="0 0 330 330"><path fill="#080807" d="M162.171 18.311c1.483-.238 3.397-.497 4.861-.121 3.121.799 33.757 28.984 36.059 32.927l52.399-.034c9.196-.014 19.074-.811 28.187.297 3.149.384 6.168 1.03 8.773 2.914 1.142 2.18 1.298 4.707 1.326 7.128.598 51.575-.193 103.287-.175 154.881l.037 58.894c.009 10.159.552 20.676-.166 30.8-.129 1.855-.635 2.788-1.951 4.09-1.271 1.256-5.68 1.326-7.402 1.417-13.173.696-26.623.123-39.842.121l-77.319-.045-85.732.037c-11.6.001-29.182 1.427-40.257-.818-1.74-1.127-2.706-2.422-3.258-4.45-1.381-5.048-.323-53.004-.332-61.236l-.027-119.026c0-20.335-.46-40.782.055-61.106.083-3.474.193-9.08 1.85-12.117 7.448-3.52 73.821-1.78 87.16-1.763 6.066-2.87 28.602-26.55 35.754-32.79"/><path fill="#fefefe" d="M74.764 90.824c18.255-1.415 41.582-.216 60.288-.214l120.042.025c.415.69.691 1.177.884 1.966 1.335 5.69.258 27.826.258 34.788l.009 57.107c0 9.777.35 19.706-.092 29.47-.074 1.694-.396 2.964-1.224 4.458-.028-.133-.046-.269-.092-.397-1.142-3.311-36.823-36.234-40.312-37.582-2.9-1.124-6.49.955-9.022 2.227-1.758 3.81-14.066 14.201-17.785 16.549-.019-.178-.028-.361-.074-.535-.81-3.043-36.602-44.466-40.855-48.932-1.675-1.768-3.36-3.334-5.532-4.482-2.661-.289-4.437.87-6.426 2.503-6.02 4.961-11.185 12.165-16.34 18.101l-32.1 37.115c-3.333 3.861-7.448 10.163-11.719 12.687-.12.069-.24.13-.359.196 1.353-3.829 1.832-116.397.451-125.05"/><path fill="#080807" d="M195.018 114.724c15.208-1.014 28.418 10.357 29.679 25.549s-9.887 28.592-25.049 30.105a27.93 27.93 0 0 1-25.628-11.742 27.93 27.93 0 0 1-2.329-28.093 27.91 27.91 0 0 1 23.327-15.819"/><path fill="#ffd026" d="M196.353 124.975c9.648-.288 17.73 7.237 18.135 16.881s-7.024 17.821-16.662 18.341a17.62 17.62 0 0 1-15.788-8.097 17.624 17.624 0 0 1 14.315-27.125"/><path fill="#fefefe" d="M139.157 157.812c4.382 1.881 11.194 11.946 14.471 15.781l36.86 43.197c5.376 6.335 10.375 13.455 16.202 19.332 1.326 1.333 2.495 2.375 4.391 2.783 2.136-.284 2.688-.349 4.391-1.619.497-1.235.663-2.005.387-3.337-1.169-5.626-15.926-23.505-20.86-26.832-.138-.095-.285-.183-.433-.274 4.051-1.849 14.877-11.263 16.534-15.263 4.188 1.826 42.935 37.819 44.233 40.892.203.445.396.811.525 1.276 1.178 4.152 1.086 32.839-.857 35.949.58 1.081.719 1.66.7 2.887-6.278.848-13.127.312-19.488.307l-36.648-.014-125.658.022c.157-.263.332-.518.47-.789 1.703-3.166 1.335-35.942-.055-40.012 4.124-2.461 57.204-65.394 64.835-74.286M53.351 61.816c7.392-1.207 15.76-.486 23.272-.474l42.705.035 156.368.045c-.046.258-.046.529-.147.775-1.013 2.676-6.868 7.66-9.261 9.29-.037.164-.046.34-.12.494-1.335 2.887-5.477 6.92-8.257 8.48-20.667 1.08-41.84.103-62.562.105L71.726 80.56c-.774-3.024-15.282-16.586-18.375-18.744M70.87 283.499c6.223-1.043 13.302-.444 19.617-.433l36.16.065 131.2-.035c.23.116.46.227.681.348 3.24 1.748 16.331 15.018 17.104 17.911-5.579.257-11.249.103-16.846.133l-205.72.033c.166-.083.331-.161.497-.249 3.885-2.1 16.1-14.094 17.307-17.773M47.018 71.479c.57.051 1.242.059 1.767.276 2.697 1.105 14.407 13.37 15.245 15.785.101.245.211.486.303.734 1.455 4.032 1.197 166.37.553 183.921-.046 1.322-.295 2.358-.838 3.572-.755 2.93-5.496 6.851-8.018 8.446-1.298 3.586-6.462 7.734-9.694 9.666.083-.15.175-.297.258-.451.82-1.659 1.013-3.099 1.077-4.925.525-16.571.065-33.304.065-49.889v-97.209c0-10.409 1.26-63.397-.718-69.926m234.828-.683c1.04.19 1.04.188 1.73.993-.773 18.596-.119 37.443-.119 56.075v107.102c.027 18.355 1.206 37.395-.056 55.657-.082 1.271-.543 2.323-1.178 3.418-.939-3.552-3.737-5.805-6.674-7.778-1.114-3.41-6.867-8.434-9.887-10.285.506-1.25.718-2.256.773-3.612.728-17.77 1.022-179.884-.727-184.807 4.465-2.377 13.146-12.513 16.138-16.763M164.731 30.052c.267.072.728.18 1.004.31 3.028 1.448 20.197 17.498 21.642 20.742l-22.489.002-23.07.014c7.116-4.494 16.488-15.005 22.913-21.068"/></svg>
